X:1
T:Title
%%score { ( 1 3 ) | ( 2 4 ) }
L:1/8
Q:1/4=100
M:4/4
K:G
V:1 treble nm="Grand Piano"
V:3 treble 
V:2 bass 
V:4 bass 
V:1
 D4 E3 D | D6 D2 | z4 z2 .B2 | G4 F4 | [DA]4 [DG]2 F2 | G2 B2 [Ge]2 d2 | ^c4 f4 | [Fd]8 | %8
w: E.~Cooper~Perry * *||||||||
 d4 A2 B2 | c4 [FA]4 | B2 d2 c2 E2 | G4 F4 | G4 A2 B2 | [=Fd]2 [Ec]2 [G,CE]2 [A,EA]2 | z4 [DF]4 | %15
w: |||||||
 [B,DG]8 |] %16
w: |
V:2
 [G,B,]4 [F,A,C]3 [F,A,C] | [G,B,]6 [B,,G,]2 | [C,G,C]2 [A,,A,]2 [E,G,]2 G,A, | [D,B,D]4 [D,A,D]4 | %4
 [C,F,]4 [B,,G,]2 [D,CD]2 | [G,B,D]2 [G,B,D]2 [E,B,]2[K:treble] [G,B,E]2 | [A,^CE]4 [A,CG]4 | %7
 [D,D]8 | [B,DG]4 [CDF]2 [B,DG]2 | [A,CE]4 [D,D]4 | [G,DG]2 [^G,B,=F]2[K:bass] [A,CE]2 [C,C]2 | %11
 [D,B,D]4 [D,A,D]4 | [G,B,D]4 [F,CD]2 [G,B,D]2 | [B,,G,]2 [C,G,]2 C,2 C,2 | D,4 z2 C2 | G,,8 |] %16
V:3
 x8 | x8 | E2 [CF]2 [B,G]2 E-[EA] | x8 | x8 | x8 | x8 | x8 | x8 | x8 | x8 | x8 | x8 | x8 | %14
 [B,DG]4 A,2 z2 | x8 |] %16
V:4
 x8 | x8 | z4 z2 C,2 | x8 | x8 | x6[K:treble] x2 | x8 | x8 | x8 | x8 | x4[K:bass] x4 | x8 | x8 | %13
 x8 | z4 D,4 | x8 |] %16

